X:1
T:Song for a guy
C:Elton John
M:C
L:1/8
%%staves {RH LH}
K:C
% most of piano tunes have only 2 voices ..
V:RH
[E8C8]|zE FG- GEC2|[E3B,3][D-B,-] [D4B,4]|zD EF- FED2|D8|
V:LH
[G,3C,3][G,-C,-] [G,4C,4]|[G,3C,3][G,-C,-] [G,4C,4]|[G,3B,,3][G,-B,,-] [G,4B,,4]|\
[G,3B,,3][G,-B,,-] [G,4B,,4]|[F,3_B,,3][F,-_B,,-] [F,4_B,,4]|
